X:1
T:Title
%%score 1 2 3 4
L:1/8
M:2/2
K:Eb
V:1 treble nm="Church Organ, Soprano"
V:2 treble nm="French Horn, Alto"
V:3 treble nm="Trombone, Tenor"
V:4 bass nm="Tuba, Bass"
V:1
 B4 c2 B2 | A2 G2 F4 | G2 A2 G4 | E4 E4 | F2 G2 A4 | G4 F4 | F4 B4- | B2 A2 G4 | B4 e4- | %9
w: By~Traditional * *|||||||||
 e2 d2 c4 | F4 B4 | A2 G2 F4 | F4 E4 |] %13
w: ||||
V:2
 G4 A2 G2 | F2 E2 E4 | D4 E4 | E4 E4 | D2 E2 F4 | E4 D4 | D4 F4 | D4 E4 | G2 F2 E4 | E4 E4 | %10
 D4 E4 | E4 E4 | D4 E4 |] %13
V:3
 E4 E4 | B,4 C4 | B,4[K:bass] B,4 | B,4 C2 B,2 | A,2 G,2 F,4 | G,2 A,2 B,4 | B,4 B,4 | B,4 B,4 | %8
 G,2 A,2 B,4 | G,4 A,4 | B,4 B,4 | E,2 B,2 C4 | B,2 A,2 G,4 |] %13
V:4
 E,4 E,4 | E,4 A,,4 | B,,4 E,4 | G,4 A,2 G,2 | F,2 E,2 D,4 | E,4 B,,4 | B,,4 D,4 | B,,4 E,4 | %8
 E,2 F,2 G,4 | E,4 A,4 | A,4 G,4 | C,2 B,,2 A,,4 | B,,4 E,4 |] %13

